X: 06
T: Keele Cranke
%R: reel, march
N: More often called Killiecrankie
N: Handwritten "Atkinson's Ms. 1694."
B: "A Collection of Original Scotch-Tunes", Henry Playford, 1700, ed. p.3 #6
F: http://imslp.org/wiki/A_Collection_of_Original_Scotch_Tunes_(Various)
Z: 2015 John Chambers <jc:trillian.mit.edu>
N: The B in bar 28 may be a highly-placed A; it's not clear.  See bar 12.
M: C|
L: 1/8
K: C
% - - - - - - - - - - - - - - - - - - - - - - - - - - - - -
EF |\
G3A G2EF | G3A G2EF | GFED CDEF | G4 G4 |\
A3B A2G2 | c3B A2G2 | c3d edcB | A4 A2ef |
g2e2 g2c2 | d2c2 d2e2 | c2A2 c2E2 | G4 G3B |\
A4 c4 | d3c d2e2 | c2A2 c3E | D4 C2 ":S:"ef |
gfga g2ef | gfga g2ef | gfed cdef | g4 g4 |\
a3b a2g2 | c'3b a2g2 | agfe defg | a4 a2G2 |
cBcd edef | gfga g2fe | d2c2 B2A2 | G4 G3B |\
A4 c4 | d3c d2e2 | (cA3) c3E | D4 C2 |]
% - - - - - - - - - - - - - - - - - - - - - - - - - - - - -

%%sep 1 1 500
%%sep 1 1 500

